src/activities/menu/resource/all.svg

<?xml version="1.0" encoding="UTF-8" standalone="no"?>
<!-- Created with Inkscape (http://www.inkscape.org/) -->

<svg
   xmlns:dc="http://purl.org/dc/elements/1.1/"
   xmlns:cc="http://creativecommons.org/ns#"
   xmlns:rdf="http://www.w3.org/1999/02/22-rdf-syntax-ns#"
   xmlns:svg="http://www.w3.org/2000/svg"
   xmlns="http://www.w3.org/2000/svg"
   xmlns:sodipodi="http://sodipodi.sourceforge.net/DTD/sodipodi-0.dtd"
   xmlns:inkscape="http://www.inkscape.org/namespaces/inkscape"
   width="50"
   height="50"
   id="svg2"
   sodipodi:version="0.32"
   inkscape:version="0.91 r13725"
   version="1.0"
   sodipodi:docname="all.svg">
  <defs
     id="defs4" />
  <sodipodi:namedview
     id="base"
     pagecolor="#ffffff"
     bordercolor="#666666"
     borderopacity="1.0"
     inkscape:pageopacity="0.0"
     inkscape:pageshadow="2"
     inkscape:zoom="4.9259717"
     inkscape:cx="15.92036"
     inkscape:cy="28.25942"
     inkscape:document-units="px"
     inkscape:current-layer="layer1"
     width="50px"
     height="50px"
     inkscape:window-width="1880"
     inkscape:window-height="1060"
     inkscape:window-x="-2"
     inkscape:window-y="-3"
     showgrid="false"
     inkscape:window-maximized="1" />
  <metadata
     id="metadata7">
    <rdf:RDF>
      <cc:Work
         rdf:about="">
        <dc:format>image/svg+xml</dc:format>
        <dc:type
           rdf:resource="http://purl.org/dc/dcmitype/StillImage" />
        <dc:title></dc:title>
        <dc:date>2015</dc:date>
        <dc:creator>
          <cc:Agent>
            <dc:title>Timothée Giet</dc:title>
          </cc:Agent>
        </dc:creator>
        <cc:license
           rdf:resource="http://creativecommons.org/licenses/by-sa/4.0/" />
      </cc:Work>
      <cc:License
         rdf:about="http://creativecommons.org/licenses/by-sa/4.0/">
        <cc:permits
           rdf:resource="http://creativecommons.org/ns#Reproduction" />
        <cc:permits
           rdf:resource="http://creativecommons.org/ns#Distribution" />
        <cc:requires
           rdf:resource="http://creativecommons.org/ns#Notice" />
        <cc:requires
           rdf:resource="http://creativecommons.org/ns#Attribution" />
        <cc:permits
           rdf:resource="http://creativecommons.org/ns#DerivativeWorks" />
        <cc:requires
           rdf:resource="http://creativecommons.org/ns#ShareAlike" />
      </cc:License>
    </rdf:RDF>
  </metadata>
  <g
     inkscape:label="Calque 1"
     inkscape:groupmode="layer"
     id="layer1">
    <path
       style="color:#000000;display:inline;overflow:visible;visibility:visible;opacity:1;fill:#f7a209;fill-opacity:1;fill-rule:nonzero;stroke:none;stroke-width:1;stroke-linecap:round;stroke-linejoin:round;stroke-miterlimit:4;stroke-dasharray:none;stroke-dashoffset:0;stroke-opacity:1;marker:none;enable-background:accumulate"
       id="path4136-3"
       sodipodi:type="arc"
       sodipodi:cx="25"
       sodipodi:cy="25"
       sodipodi:rx="13.804381"
       sodipodi:ry="13.804381"
       sodipodi:start="0.14344896"
       sodipodi:end="0.14048923"
       sodipodi:open="true"
       d="M 38.662594,26.97344 A 13.804381,13.804381 0 0 1 23.03667,38.664051 13.804381,13.804381 0 0 1 11.3345,23.046781 13.804381,13.804381 0 0 1 26.943107,11.333059 13.804381,13.804381 0 0 1 38.668375,26.932994" />
    <path
       style="color:#000000;display:inline;overflow:visible;visibility:visible;opacity:1;fill:#fce8a5;fill-opacity:1;fill-rule:nonzero;stroke:none;stroke-width:1;stroke-linecap:round;stroke-linejoin:round;stroke-miterlimit:4;stroke-dasharray:none;stroke-dashoffset:0;stroke-opacity:1;marker:none;enable-background:accumulate"
       id="path4136"
       sodipodi:type="arc"
       sodipodi:cx="25"
       sodipodi:cy="25"
       sodipodi:rx="11.723274"
       sodipodi:ry="11.723274"
       sodipodi:start="0.14344896"
       sodipodi:end="0.14048923"
       sodipodi:open="true"
       d="M 36.602862,26.67593 A 11.723274,11.723274 0 0 1 23.332656,36.604099 11.723274,11.723274 0 0 1 13.39467,23.341243 11.723274,11.723274 0 0 1 26.65017,13.393446 11.723274,11.723274 0 0 1 36.607772,26.641581" />
    <path
       style="color:#000000;display:inline;overflow:visible;visibility:visible;opacity:1;fill:#f68909;fill-opacity:1;fill-rule:nonzero;stroke:none;stroke-width:1;stroke-linecap:round;stroke-linejoin:round;stroke-miterlimit:4;stroke-dasharray:none;stroke-dashoffset:0;stroke-opacity:1;marker:none;enable-background:accumulate"
       d="m 85.933594,0.996094 -0.876953,24.039062 6.96289,-23.02539 A 24.056166,24.056166 0 0 0 85.933594,0.996094 Z M 85.056641,25.035156 98.462891,5.060547 A 24.056166,24.056166 0 0 0 95.478516,3.353516 l -10.421875,21.68164 z m 0,0 L 101.48047,7.458984 A 24.056166,24.056166 0 0 0 100.72461,6.78125 L 85.056641,25.035156 Z m 0,0 -1.023438,-24.033203 a 24.056166,24.056166 0 0 0 -3.830078,0.472656 l 4.853516,23.560547 z M 76.246094,2.59375 a 24.056166,24.056166 0 0 0 -0.9375,0.388672 L 85,25 76.246094,2.59375 Z M 85,25 62.882812,15.537109 a 24.056166,24.056166 0 0 0 -1.228515,3.658203 L 85,25 Z M 85,25 67.242187,8.771484 a 24.056166,24.056166 0 0 0 -3.542968,5.048828 L 85,25 Z M 85,25 72.779297,4.279297 A 24.056166,24.056166 0 0 0 69.951172,6.232422 L 85,25 Z M 102.88477,8.951172 85.052734,25.097656 105.23828,12.011719 A 24.056166,24.056166 0 0 0 102.88477,8.951172 Z M 85.052734,25.097656 108.42578,19.402344 a 24.056166,24.056166 0 0 0 -2.21875,-5.75586 L 85.052734,25.097656 Z m 0,0 24.015626,1.40625 a 24.056166,24.056166 0 0 0 -0.0449,-3.439453 l -23.970705,2.033203 z m 0,0 23.482426,5.22461 a 24.056166,24.056166 0 0 0 0.19922,-0.996094 L 85.052734,25.097656 Z M 61.451172,19.867188 a 24.056166,24.056166 0 0 0 -0.197266,0.996093 l 23.69336,4.164063 -23.496094,-5.160156 z m 23.496094,5.160156 -20.150391,13.140625 a 24.056166,24.056166 0 0 0 2.361328,3.052734 L 84.947266,25.027344 Z m 0,0 -23.357422,5.757812 a 24.056166,24.056166 0 0 0 2.232422,5.751953 l 21.125,-11.509765 z m 0,0 -24.017579,-1.341797 a 24.056166,24.056166 0 0 0 0.05273,3.439453 l 23.964844,-2.097656 z m -0.0039,0.06445 1.087891,24.03125 a 24.056166,24.056166 0 0 0 3.828125,-0.484375 L 84.943366,25.091794 Z m 0,0 -6.90039,23.044922 a 24.056166,24.056166 0 0 0 6.08789,0.996093 l 0.8125,-24.041015 z m 0,0 -13.353515,20.009765 a 24.056166,24.056166 0 0 0 2.990234,1.699219 L 84.943366,25.091794 Z m 0,0 -16.376953,17.619141 a 24.056166,24.056166 0 0 0 0.757813,0.675781 l 15.61914,-18.294922 z m 0.05664,0.03516 22.091794,9.521485 a 24.056166,24.056166 0 0 0 1.23828,-3.65625 L 85,25.126953 Z m 0,0 17.714844,16.275391 a 24.056166,24.056166 0 0 0 3.55664,-5.041016 L 85,25.126953 Z m 0,0 12.166016,20.751953 A 24.056166,24.056166 0 0 0 100,43.933594 L 85,25.126953 Z m 0,0 8.695312,22.429688 a 24.056166,24.056166 0 0 0 0.9375,-0.386719 L 85,25.126953 Z"
       id="path4136-3-3"
       inkscape:connector-curvature="0" />
    <path
       style="color:#000000;display:inline;overflow:visible;visibility:visible;opacity:1;fill:#f7a209;fill-opacity:1;fill-rule:nonzero;stroke:none;stroke-width:1;stroke-linecap:round;stroke-linejoin:round;stroke-miterlimit:4;stroke-dasharray:none;stroke-dashoffset:0;stroke-opacity:1;marker:none;enable-background:accumulate"
       d="M 25.933594 0.99609375 L 25.640625 9 A 16.029354 16.029354 0 0 1 27.255859 9.1308594 A 16.029354 16.029354 0 0 1 29.695312 9.6953125 L 32.019531 2.0097656 A 24.056166 24.056166 0 0 0 25.933594 0.99609375 z M 24.033203 1.0019531 A 24.056166 24.056166 0 0 0 20.203125 1.4746094 L 21.816406 9.3066406 A 16.029354 16.029354 0 0 1 24.373047 8.9902344 L 24.033203 1.0019531 z M 16.246094 2.59375 A 24.056166 24.056166 0 0 0 15.308594 2.9824219 L 18.546875 10.337891 A 16.029354 16.029354 0 0 1 19.173828 10.087891 L 16.246094 2.59375 z M 35.478516 3.3535156 L 32 10.587891 A 16.029354 16.029354 0 0 1 33.976562 11.744141 L 38.462891 5.0605469 A 24.056166 24.056166 0 0 0 35.478516 3.3535156 z M 12.779297 4.2792969 A 24.056166 24.056166 0 0 0 9.9511719 6.2324219 L 14.984375 12.509766 A 16.029354 16.029354 0 0 1 16.857422 11.195312 L 12.779297 4.2792969 z M 40.724609 6.78125 L 35.478516 12.892578 A 16.029354 16.029354 0 0 1 35.984375 13.339844 L 41.480469 7.4589844 A 24.056166 24.056166 0 0 0 40.724609 6.78125 z M 7.2421875 8.7714844 A 24.056166 24.056166 0 0 0 3.6992188 13.820312 L 10.824219 17.560547 A 16.029354 16.029354 0 0 1 13.167969 14.1875 L 7.2421875 8.7714844 z M 42.884766 8.9511719 L 36.953125 14.322266 A 16.029354 16.029354 0 0 1 38.494141 16.382812 L 45.238281 12.011719 A 24.056166 24.056166 0 0 0 42.884766 8.9511719 z M 46.207031 13.646484 L 39.132812 17.476562 A 16.029354 16.029354 0 0 1 40.597656 21.310547 L 48.425781 19.402344 A 24.056166 24.056166 0 0 0 46.207031 13.646484 z M 2.8828125 15.537109 A 24.056166 24.056166 0 0 0 1.6542969 19.195312 L 9.4453125 21.132812 A 16.029354 16.029354 0 0 1 10.28125 18.703125 L 2.8828125 15.537109 z M 1.4511719 19.867188 A 24.056166 24.056166 0 0 0 1.2539062 20.863281 L 9.2226562 22.263672 A 16.029354 16.029354 0 0 1 9.3515625 21.601562 L 1.4511719 19.867188 z M 49.023438 23.064453 L 40.958984 23.748047 A 16.029354 16.029354 0 0 1 40.992188 26.03125 L 49.068359 26.503906 A 24.056166 24.056166 0 0 0 49.023438 23.064453 z M 0.9296875 23.685547 A 24.056166 24.056166 0 0 0 0.98242188 27.125 L 9.0527344 26.417969 A 16.029354 16.029354 0 0 1 9.0058594 24.136719 L 0.9296875 23.685547 z M 40.746094 27.900391 A 16.029354 16.029354 0 0 1 40.615234 28.560547 L 48.535156 30.322266 A 24.056166 24.056166 0 0 0 48.734375 29.326172 L 40.746094 27.900391 z M 9.4492188 28.847656 L 1.5898438 30.785156 A 24.056166 24.056166 0 0 0 3.8222656 36.537109 L 10.939453 32.660156 A 16.029354 16.029354 0 0 1 9.4492188 28.847656 z M 40.507812 29.025391 A 16.029354 16.029354 0 0 1 39.658203 31.445312 L 47.091797 34.648438 A 24.056166 24.056166 0 0 0 48.330078 30.992188 L 40.507812 29.025391 z M 39.103516 32.576172 A 16.029354 16.029354 0 0 1 36.738281 35.912109 L 42.714844 41.402344 A 24.056166 24.056166 0 0 0 46.271484 36.361328 L 39.103516 32.576172 z M 11.587891 33.740234 L 4.796875 38.167969 A 24.056166 24.056166 0 0 0 7.1582031 41.220703 L 13.140625 35.773438 A 16.029354 16.029354 0 0 1 11.587891 33.740234 z M 14.105469 36.751953 L 8.5664062 42.710938 A 24.056166 24.056166 0 0 0 9.3242188 43.386719 L 14.617188 37.1875 A 16.029354 16.029354 0 0 1 14.105469 36.751953 z M 34.921875 37.566406 A 16.029354 16.029354 0 0 1 33.050781 38.859375 L 37.166016 45.878906 A 24.056166 24.056166 0 0 0 40 43.933594 L 34.921875 37.566406 z M 16.115234 38.318359 L 11.589844 45.101562 A 24.056166 24.056166 0 0 0 14.580078 46.800781 L 18.085938 39.458984 A 16.029354 16.029354 0 0 1 16.115234 38.318359 z M 31.367188 39.697266 A 16.029354 16.029354 0 0 1 30.744141 39.943359 L 33.695312 47.556641 A 24.056166 24.056166 0 0 0 34.632812 47.169922 L 31.367188 39.697266 z M 20.380859 40.328125 L 18.042969 48.136719 A 24.056166 24.056166 0 0 0 24.130859 49.132812 L 24.40625 41 A 16.029354 16.029354 0 0 1 22.720703 40.867188 A 16.029354 16.029354 0 0 1 20.380859 40.328125 z M 28.199219 40.691406 A 16.029354 16.029354 0 0 1 25.664062 41.005859 L 26.03125 49.123047 A 24.056166 24.056166 0 0 0 29.859375 48.638672 L 28.199219 40.691406 z "
       id="path4136-3-3-29" />
  </g>
</svg>

<!--Created with Inkscape (http://www.inkscape.org/)--><svg xmlns:dc="http://purl.org/dc/elements/1.1/" xmlns:cc="http://creativecommons.org/ns#" xmlns:rdf="http://www.w3.org/1999/02/22-rdf-syntax-ns#" xmlns="http://www.w3.org/2000/svg" xmlns:sodipodi="http://sodipodi.sourceforge.net/DTD/sodipodi-0.dtd" xmlns:inkscape="http://www.inkscape.org/namespaces/inkscape" width="50" height="50" sodipodi:version="0.32" inkscape:version="0.91 r13725" version="1.0" sodipodi:docname="all.svg"><sodipodi:namedview pagecolor="#ffffff" bordercolor="#666666" borderopacity="1.0" inkscape:pageopacity="0.0" inkscape:pageshadow="2" inkscape:zoom="4.9259717" inkscape:cx="15.92036" inkscape:cy="28.25942" inkscape:document-units="px" inkscape:current-layer="layer1" width="50px" height="50px" inkscape:window-width="1880" inkscape:window-height="1060" inkscape:window-x="-2" inkscape:window-y="-3" showgrid="false" inkscape:window-maximized="1"/><metadata><rdf:RDF><cc:Work><dc:format>image/svg+xml</dc:format><dc:type rdf:resource="http://purl.org/dc/dcmitype/StillImage"/><dc:title/><dc:date>2015</dc:date><dc:creator><cc:Agent><dc:title>Timothée Giet</dc:title></cc:Agent></dc:creator><cc:license rdf:resource="http://creativecommons.org/licenses/by-sa/4.0/"/></cc:Work><cc:License rdf:about="http://creativecommons.org/licenses/by-sa/4.0/"><cc:permits rdf:resource="http://creativecommons.org/ns#Reproduction"/><cc:permits rdf:resource="http://creativecommons.org/ns#Distribution"/><cc:requires rdf:resource="http://creativecommons.org/ns#Notice"/><cc:requires rdf:resource="http://creativecommons.org/ns#Attribution"/><cc:permits rdf:resource="http://creativecommons.org/ns#DerivativeWorks"/><cc:requires rdf:resource="http://creativecommons.org/ns#ShareAlike"/></cc:License></rdf:RDF></metadata><g inkscape:label="Calque 1" inkscape:groupmode="layer"><path style="color:#000;display:inline;overflow:visible;visibility:visible;opacity:1;fill:#f7a209;fill-opacity:1;fill-rule:nonzero;stroke:none;stroke-width:1;stroke-linecap:round;stroke-linejoin:round;stroke-miterlimit:4;stroke-dasharray:none;stroke-dashoffset:0;stroke-opacity:1;marker:none;enable-background:accumulate" sodipodi:type="arc" sodipodi:cx="25" sodipodi:cy="25" sodipodi:rx="13.804381" sodipodi:ry="13.804381" sodipodi:start="0.14344896" sodipodi:end="0.14048923" sodipodi:open="true" d="M38.663 26.973a13.804 13.804 0 0 1-15.626 11.691 13.804 13.804 0 0 1-11.702-15.617 13.804 13.804 0 0 1 15.608-11.714 13.804 13.804 0 0 1 11.725 15.6"/><path style="color:#000;display:inline;overflow:visible;visibility:visible;opacity:1;fill:#fce8a5;fill-opacity:1;fill-rule:nonzero;stroke:none;stroke-width:1;stroke-linecap:round;stroke-linejoin:round;stroke-miterlimit:4;stroke-dasharray:none;stroke-dashoffset:0;stroke-opacity:1;marker:none;enable-background:accumulate" sodipodi:type="arc" sodipodi:cx="25" sodipodi:cy="25" sodipodi:rx="11.723274" sodipodi:ry="11.723274" sodipodi:start="0.14344896" sodipodi:end="0.14048923" sodipodi:open="true" d="M36.603 26.676a11.723 11.723 0 0 1-13.27 9.928 11.723 11.723 0 0 1-9.938-13.263 11.723 11.723 0 0 1 13.255-9.948 11.723 11.723 0 0 1 9.958 13.249"/><path style="color:#000;display:inline;overflow:visible;visibility:visible;opacity:1;fill:#f68909;fill-opacity:1;fill-rule:nonzero;stroke:none;stroke-width:1;stroke-linecap:round;stroke-linejoin:round;stroke-miterlimit:4;stroke-dasharray:none;stroke-dashoffset:0;stroke-opacity:1;marker:none;enable-background:accumulate" d="m85.934.996-.877 24.04L92.02 2.01A24.056 24.056 0 0 0 85.934.996zm-.877 24.04L98.463 5.06a24.056 24.056 0 0 0-2.984-1.707L85.057 25.035zm0 0L101.48 7.458a24.056 24.056 0 0 0-.755-.678L85.057 25.035zm0 0L84.033 1.001a24.056 24.056 0 0 0-3.83.473l4.854 23.56zm-8.81-22.442a24.056 24.056 0 0 0-.938.388L85 25 76.246 2.594zM85 25l-22.117-9.463a24.056 24.056 0 0 0-1.229 3.658L85 25zm0 0L67.242 8.771a24.056 24.056 0 0 0-3.543 5.05L85 25zm0 0L72.78 4.28a24.056 24.056 0 0 0-2.829 1.952L85 25zm17.885-16.049L85.053 25.098l20.185-13.086a24.056 24.056 0 0 0-2.353-3.06zM85.053 25.098l23.373-5.696a24.056 24.056 0 0 0-2.219-5.756L85.053 25.098zm0 0 24.015 1.406a24.056 24.056 0 0 0-.045-3.44l-23.97 2.034zm0 0 23.482 5.224a24.056 24.056 0 0 0 .2-.996l-23.682-4.228zm-23.602-5.23a24.056 24.056 0 0 0-.197.995l23.693 4.164-23.496-5.16zm23.496 5.16-20.15 13.14a24.056 24.056 0 0 0 2.361 3.053l17.79-16.194zm0 0L61.59 30.784a24.056 24.056 0 0 0 2.232 5.752l21.125-11.51zm0 0L60.93 23.685a24.056 24.056 0 0 0 .052 3.439l23.965-2.098zm-.004.064 1.088 24.031a24.056 24.056 0 0 0 3.828-.484l-4.916-23.547zm0 0-6.9 23.045a24.056 24.056 0 0 0 6.088.996l.812-24.041zm0 0L71.59 45.102a24.056 24.056 0 0 0 2.99 1.699l10.363-21.71zm0 0L68.566 42.71a24.056 24.056 0 0 0 .758.676l15.62-18.295zm.057.035 22.092 9.521a24.056 24.056 0 0 0 1.238-3.656L85 25.127zm0 0 17.715 16.275a24.056 24.056 0 0 0 3.556-5.04L85 25.126zm0 0 12.166 20.752A24.056 24.056 0 0 0 100 43.934L85 25.127zm0 0 8.695 22.43a24.056 24.056 0 0 0 .938-.387L85 25.127z" inkscape:connector-curvature="0"/><path style="color:#000;display:inline;overflow:visible;visibility:visible;opacity:1;fill:#f7a209;fill-opacity:1;fill-rule:nonzero;stroke:none;stroke-width:1;stroke-linecap:round;stroke-linejoin:round;stroke-miterlimit:4;stroke-dasharray:none;stroke-dashoffset:0;stroke-opacity:1;marker:none;enable-background:accumulate" d="M25.934.996 25.64 9a16.03 16.03 0 0 1 1.615.13 16.03 16.03 0 0 1 2.44.565L32.02 2.01A24.056 24.056 0 0 0 25.934.996zm-1.9.006a24.056 24.056 0 0 0-3.83.473l1.612 7.832a16.03 16.03 0 0 1 2.557-.317l-.34-7.988zm-7.788 1.592a24.056 24.056 0 0 0-.937.388l3.238 7.356a16.03 16.03 0 0 1 .627-.25l-2.928-7.494zm19.233.76L32 10.588a16.03 16.03 0 0 1 1.977 1.156l4.486-6.683a24.056 24.056 0 0 0-2.984-1.707zm-22.7.925a24.056 24.056 0 0 0-2.828 1.953l5.033 6.278a16.03 16.03 0 0 1 1.873-1.315L12.78 4.28zm27.946 2.502-5.246 6.112a16.03 16.03 0 0 1 .505.447l5.496-5.881a24.056 24.056 0 0 0-.755-.678zM7.242 8.771a24.056 24.056 0 0 0-3.543 5.05l7.125 3.74a16.03 16.03 0 0 1 2.344-3.373L7.242 8.77zm35.643.18-5.932 5.371a16.03 16.03 0 0 1 1.541 2.06l6.744-4.37a24.056 24.056 0 0 0-2.353-3.06zm3.322 4.695-7.074 3.83a16.03 16.03 0 0 1 1.465 3.835l7.828-1.909a24.056 24.056 0 0 0-2.219-5.756zM2.883 15.537a24.056 24.056 0 0 0-1.229 3.658l7.791 1.938a16.03 16.03 0 0 1 .836-2.43l-7.398-3.166zm-1.432 4.33a24.056 24.056 0 0 0-.197.996l7.969 1.4a16.03 16.03 0 0 1 .129-.661l-7.9-1.735zm47.572 3.197-8.064.684a16.03 16.03 0 0 1 .033 2.283l8.076.473a24.056 24.056 0 0 0-.045-3.44zM.93 23.686a24.056 24.056 0 0 0 .052 3.439l8.07-.707a16.03 16.03 0 0 1-.046-2.281L.93 23.686zM40.746 27.9a16.03 16.03 0 0 1-.13.66l7.92 1.762a24.056 24.056 0 0 0 .198-.996L40.746 27.9zm-31.297.948-7.86 1.937a24.056 24.056 0 0 0 2.233 5.752l7.117-3.877a16.03 16.03 0 0 1-1.49-3.812zm31.059.177a16.03 16.03 0 0 1-.85 2.42l7.434 3.203a24.056 24.056 0 0 0 1.238-3.656l-7.822-1.967zm-1.404 3.551a16.03 16.03 0 0 1-2.366 3.336l5.977 5.49a24.056 24.056 0 0 0 3.556-5.04l-7.167-3.786zM11.588 33.74l-6.791 4.428a24.056 24.056 0 0 0 2.361 3.053l5.983-5.448a16.03 16.03 0 0 1-1.553-2.033zm2.517 3.012-5.539 5.959a24.056 24.056 0 0 0 .758.676l5.293-6.2a16.03 16.03 0 0 1-.512-.435zm20.817.814a16.03 16.03 0 0 1-1.871 1.293l4.115 7.02A24.056 24.056 0 0 0 40 43.934l-5.078-6.368zm-18.807.752-4.525 6.784a24.056 24.056 0 0 0 2.99 1.699l3.506-7.342a16.03 16.03 0 0 1-1.97-1.14zm15.252 1.38a16.03 16.03 0 0 1-.623.245l2.951 7.614a24.056 24.056 0 0 0 .938-.387l-3.266-7.473zm-10.986.63-2.338 7.809a24.056 24.056 0 0 0 6.088.996L24.406 41a16.03 16.03 0 0 1-1.685-.133 16.03 16.03 0 0 1-2.34-.539zm7.818.363a16.03 16.03 0 0 1-2.535.315l.367 8.117a24.056 24.056 0 0 0 3.828-.484L28.2 40.69z"/></g></svg>
